X: 1
T: Can You Dance A Tobacco Hill
M: 4/4
L: 1/8
R: reel
K: Dmaj
Addc d2dB|AddA BAGF|Addc d2dA|ABAG FAD2|
Addc d2dB|AddA BAGF|Addc d2dA|ABAG FAD2:|
~A2FD ~G3B|~A2FD EFGE|~A2FD ~G3B|Adeg fddB|
~A2FD ~G3B|~A2FD EFGE|~A2FD ~G3B|Adeg fdd2:|
